img/logo_bv.svg

<svg width="273" height="65" viewBox="0 0 273 65" fill="none" xmlns="http://www.w3.org/2000/svg">
<path fill-rule="evenodd" clip-rule="evenodd" d="M259.405 19.0483H259.794H260.184L260.521 19.1392L260.859 19.295L261.197 19.4379L261.521 19.6326L261.781 19.8534L262.054 20.0871L262.313 20.3598L262.534 20.6584L262.729 20.9701L262.872 21.2817L263.001 21.6193L263.092 21.9828V22.3724V22.7619V23.1515V23.515L263.001 23.8656L262.872 24.2292L262.729 24.5408L262.534 24.8524L262.313 25.1511L262.054 25.4108L261.781 25.6575L261.521 25.8782L261.197 26.073L260.859 26.2158L260.521 26.3457L260.184 26.4366H259.989H259.794H259.599H259.21H259.015H258.82H258.652L258.288 26.3457L257.937 26.2158L257.626 26.073L257.314 25.8782L257.016 25.6575L256.73 25.4108L256.509 25.1511L256.262 24.8524L256.094 24.5408L255.951 24.2292L255.808 23.8656L255.704 23.515V23.3203V22.9567V22.7619V22.5672V22.1776V21.9828L255.808 21.6193L255.951 21.2817L256.094 20.9701L256.262 20.6584L256.509 20.3598L256.73 20.0871L257.016 19.8534L257.314 19.6326L257.626 19.4379L257.937 19.295L258.288 19.1392L258.652 19.0483H259.015H259.405ZM259.405 19.6067H259.716H260.054L260.353 19.6976L260.638 19.8014L260.937 19.9183L261.171 20.0871L261.443 20.2819L261.638 20.4766L261.859 20.6974L262.054 20.9701L262.196 21.2038L262.339 21.4765L262.443 21.7621L262.534 22.0867V22.3984V22.736V23.0606V23.3722L262.443 23.6579L262.339 23.9565L262.196 24.2422L262.054 24.5148L261.859 24.7615L261.638 24.9823L261.443 25.19L261.171 25.3718L260.937 25.5406L260.638 25.6834L260.353 25.7743L260.054 25.8522L259.69 25.9691H259.054H258.743L258.431 25.8912L258.132 25.8003L257.873 25.6575L257.6 25.4887L257.353 25.3069L257.093 25.0602L256.899 24.8395L256.704 24.5927L256.561 24.3201L256.405 24.0344L256.288 23.7358L256.211 23.4501V23.1385V22.4763V22.1646L256.288 21.84L256.405 21.5544L256.561 21.2817L256.704 21.048L256.899 20.7753L257.093 20.5545L257.327 20.3598L257.574 20.165L257.847 19.9962L258.106 19.8794L258.405 19.7755L258.717 19.6846H259.028L259.405 19.6067ZM257.795 24.8005V20.7753H260.132H260.353H260.547L260.69 20.8532L260.833 20.9181L260.963 21.022L261.054 21.1389L261.158 21.2817V21.4115V21.5544V21.7232V22.0737V22.1776V22.2945V22.4243V22.5152L261.08 22.6191V22.684L261.015 22.7619L260.911 22.8268H260.833H260.742H260.651H260.82L260.937 22.9048L261.054 22.9956V23.1255L261.132 23.2683V23.4112V23.9435V24.1253V24.2681V24.359V24.4629V24.6707V24.7486V24.8265H260.158L260.054 24.6707V24.5278V24.1383V23.9435V23.7488V23.6059V23.515V23.4371H259.976H259.885H259.755H258.859V24.9693L257.795 24.8005ZM258.768 21.4635V22.5152H259.794H259.911H260.015L260.106 22.4373L260.184 22.3724L260.249 22.2945V22.1776V21.9049V21.7881L260.184 21.6842L260.106 21.6193H260.015H259.885H258.768V21.4635Z" fill="#055FAA"/>
<path d="M16.4902 32.5652H20.035C22.5655 32.3891 25.0893 32.9918 27.2673 34.2921C28.0748 34.9208 28.7143 35.7394 29.1289 36.675C29.5435 37.6107 29.7202 38.6343 29.6435 39.6547C29.6922 40.5357 29.5206 41.4148 29.1443 42.2128C28.7679 43.0108 28.1987 43.7025 27.4881 44.2253C25.6268 45.402 23.4397 45.9567 21.2425 45.8094H9.8291V24.2551H28.0075V28.6309H16.4902V32.5652ZM16.4902 41.1869H19.8921C21.9826 41.1869 23.0214 40.4338 23.0214 38.9016C23.0214 37.6032 21.9826 36.941 19.8921 36.941H16.4902V41.1869ZM33.2273 24.307H51.094V28.9035H39.9143V32.3185H50.3019V36.7202H39.9143V40.9792H51.4056V45.8614H33.2273V24.307ZM74.7778 45.8614H68.1557V29.5528H62.9619V36.1879C63.0156 38.1972 62.8677 40.2069 62.5204 42.1867C62.4043 42.7758 62.162 43.3327 61.8101 43.8191C61.4582 44.3055 61.005 44.7099 60.4818 45.0044C58.8519 45.7306 57.0677 46.0429 55.288 45.9133C54.4471 45.9044 53.6085 45.8218 52.782 45.6666V41.3168H53.7818C54.1266 41.3483 54.4743 41.3106 54.8043 41.2057C55.1343 41.1009 55.4401 40.9312 55.7035 40.7065C56.1439 40.0693 56.342 39.2956 56.2618 38.5251V24.2421H74.8168L74.7778 45.8614ZM85.8796 32.6171H89.4374C91.9769 32.4323 94.5116 33.0354 96.6957 34.3441C97.5073 34.9698 98.1506 35.7875 98.5677 36.7236C98.9847 37.6597 99.1624 38.6848 99.0849 39.7067C99.1401 40.5925 98.9674 41.4778 98.5833 42.2779C98.1991 43.0781 97.6163 43.7664 96.8905 44.2772C95.042 45.4613 92.8606 46.0168 90.6709 45.8614H79.2705V24.2551H85.9185L85.8796 32.6171ZM85.8796 41.2389H89.2816C91.3721 41.2389 92.4238 40.4858 92.4238 38.9536C92.4238 37.6551 91.3721 36.9929 89.2816 36.9929H85.9185L85.8796 41.2389ZM100.708 24.3589H107.395V45.9133H100.747L100.708 24.3589ZM132.455 24.3589V45.9133H126.223V33.9675L118.159 45.8094H111.849V24.2551H118.159V36.1879L126.3 24.2551L132.455 24.3589ZM127.56 19.0353C127.472 19.6264 127.269 20.1945 126.961 20.707C126.654 21.2194 126.248 21.6662 125.768 22.0217C124.759 22.8009 123.511 23.2049 122.236 23.1644C120.968 23.1945 119.727 22.7914 118.718 22.0217C117.754 21.2994 117.115 20.2262 116.939 19.0353H119.536C119.725 19.5863 120.095 20.0574 120.585 20.373C121.074 20.6886 121.656 20.8303 122.236 20.7752C122.844 20.8462 123.458 20.7001 123.969 20.3628C124.479 20.0254 124.855 19.5185 125.028 18.9314L127.56 19.0353ZM146.959 24.3589H159.45C161.184 24.2441 162.896 24.7918 164.241 25.8911C164.779 26.3719 165.207 26.9629 165.496 27.6239C165.785 28.2848 165.928 29.0003 165.916 29.7216C165.932 30.9257 165.508 32.0941 164.722 33.0067C164.086 33.6813 163.285 34.1781 162.398 34.4479C163.714 34.6931 164.914 35.3637 165.812 36.3567C166.577 37.3311 166.969 38.5469 166.916 39.7846C166.925 40.8397 166.657 41.8786 166.137 42.797C165.627 43.6826 164.886 44.4139 163.995 44.9135C163.182 45.3132 162.301 45.5555 161.398 45.6276C160.408 45.7747 159.411 45.8701 158.411 45.9133H146.894L146.959 24.3589ZM153.685 32.8119H156.58C157.351 32.8916 158.126 32.7036 158.775 32.2795C158.98 32.0776 159.14 31.8341 159.243 31.5653C159.346 31.2965 159.39 31.0087 159.372 30.7214C159.384 30.4464 159.336 30.172 159.233 29.9168C159.13 29.6615 158.974 29.4312 158.775 29.2411C158.136 28.8414 157.383 28.6634 156.632 28.7347H153.685V32.8119ZM153.685 41.2908H157.113C157.966 41.3639 158.819 41.154 159.541 40.6935C159.77 40.483 159.952 40.2257 160.073 39.9389C160.194 39.6521 160.251 39.3426 160.242 39.0315C160.247 38.7399 160.187 38.4508 160.066 38.1857C159.944 37.9205 159.765 37.6859 159.541 37.4993C158.81 37.0377 157.947 36.8322 157.087 36.915H153.698L153.685 41.2908ZM170.383 24.4109H188.276V29.0074H177.109V32.4223H187.497V36.8241H177.109V41.083H188.6V45.9652H170.422L170.383 24.4109ZM190.639 24.4109H210.908V29.7345H204.091V45.9652H197.443V29.5787H190.639V24.4109ZM213.92 24.4109H231.761V29.0074H220.581V32.4223H230.969V36.8241H220.581V41.083H232.099V45.9652H213.92V24.4109ZM235.643 24.4109H246.706C248.667 24.1885 250.636 24.7484 252.186 25.969C252.81 26.6117 253.292 27.3784 253.601 28.2195C253.91 29.0606 254.038 29.9573 253.978 30.8512C254.031 31.7899 253.887 32.7294 253.553 33.6086C253.22 34.4878 252.705 35.2869 252.043 35.9541C250.346 37.3107 248.196 37.97 246.031 37.798H242.395V45.7964H235.682L235.643 24.4109ZM242.356 33.591H243.979C244.927 33.6785 245.876 33.4502 246.68 32.9417C246.932 32.7316 247.133 32.467 247.268 32.1678C247.403 31.8687 247.469 31.5428 247.459 31.2148C247.468 30.8953 247.412 30.5773 247.293 30.2804C247.175 29.9834 246.997 29.7138 246.771 29.4878C246.056 28.9318 245.151 28.6798 244.252 28.7867H242.356V33.591Z" fill="#055FAA"/>
</svg>

<svg width="273" height="65" fill="none" xmlns="http://www.w3.org/2000/svg"><path fill-rule="evenodd" clip-rule="evenodd" d="M259.405 19.048h.779l.337.091.338.156.338.143.324.195.26.22.273.234.259.273.221.298.195.312.143.312.129.337.091.364v1.532l-.091.35-.129.364-.143.312-.195.311-.221.3-.259.259-.273.246-.26.221-.324.195-.338.143-.338.13-.337.09h-1.532l-.364-.09-.351-.13-.311-.143-.312-.195-.298-.22-.286-.247-.221-.26-.247-.299-.168-.311-.143-.312-.143-.363-.104-.351v-1.532l.104-.364.143-.337.143-.312.168-.312.247-.298.221-.273.286-.234.298-.22.312-.195.311-.143.351-.156.364-.09h.753Zm0 .559h.649l.299.09.285.104.299.117.234.17.272.194.195.195.221.22.195.273.142.234.143.273.104.285.091.325v1.285l-.091.286-.104.298-.143.286-.142.273-.195.247-.221.22-.195.208-.272.182-.234.169-.299.142-.285.091-.299.078-.364.117H258.743l-.312-.078-.299-.09-.259-.143-.273-.17-.247-.181-.26-.247-.194-.22-.195-.247-.143-.273-.156-.286-.117-.298-.077-.286v-1.285l.077-.325.117-.286.156-.272.143-.234.195-.273.194-.22.234-.195.247-.195.273-.169.259-.117.299-.104.312-.09h.311l.377-.078Zm-1.61 5.194v-4.026H260.547l.143.078.143.065.13.104.091.117.104.143V22.515l-.078.104v.065l-.065.078-.104.065h-.26.169l.117.078.117.09v.13l.078.143V24.827h-.974l-.104-.156v-1.234h-1.195v1.532l-1.064-.169Zm.973-3.337v1.051h1.247l.091-.078.078-.065.065-.078v-.506l-.065-.104-.078-.065h-1.338v-.155Z" fill="#055FAA"/><path d="M16.49 32.565h3.545c2.53-.176 5.054.427 7.232 1.727a6.207 6.207 0 0 1 2.377 5.363 5.31 5.31 0 0 1-2.156 4.57 10.388 10.388 0 0 1-6.245 1.584H9.829V24.255h18.178v4.376H16.49v3.934Zm0 8.622h3.402c2.09 0 3.13-.753 3.13-2.285 0-1.299-1.04-1.961-3.13-1.961H16.49v4.246Zm16.737-16.88h17.867v4.597h-11.18v3.415h10.388v4.401H39.914v4.26h11.492v4.881H33.227V24.307Zm41.55 21.554h-6.621V29.553h-5.194v6.635a30.07 30.07 0 0 1-.442 5.999 4.156 4.156 0 0 1-2.038 2.817 10.83 10.83 0 0 1-5.194.91c-.84-.01-1.68-.092-2.506-.247v-4.35h1a2.596 2.596 0 0 0 1.922-.61c.44-.638.638-1.411.558-2.182V24.242h18.555l-.04 21.62ZM85.88 32.617h3.557c2.54-.185 5.075.418 7.259 1.727a6.181 6.181 0 0 1 2.389 5.363 5.195 5.195 0 0 1-2.194 4.57 10.193 10.193 0 0 1-6.22 1.584h-11.4V24.255h6.647l-.038 8.362Zm0 8.622h3.402c2.09 0 3.142-.753 3.142-2.285 0-1.299-1.052-1.961-3.142-1.961h-3.364l-.038 4.246Zm14.828-16.88h6.687v21.554h-6.648l-.039-21.554Zm31.747 0v21.554h-6.232V33.968l-8.064 11.841h-6.31V24.255h6.31v11.933l8.141-11.933 6.155.104Zm-4.895-5.324a4.543 4.543 0 0 1-1.792 2.987 5.492 5.492 0 0 1-3.532 1.142 5.583 5.583 0 0 1-3.518-1.142 4.565 4.565 0 0 1-1.779-2.987h2.597a2.593 2.593 0 0 0 2.7 1.74 2.6 2.6 0 0 0 2.792-1.844l2.532.104Zm19.399 5.324h12.491a6.854 6.854 0 0 1 4.791 1.532 5.022 5.022 0 0 1 1.675 3.83 4.932 4.932 0 0 1-1.194 3.286 5.323 5.323 0 0 1-2.324 1.44 6.113 6.113 0 0 1 3.414 1.91 5.192 5.192 0 0 1 1.104 3.428 6.009 6.009 0 0 1-.779 3.012 5.675 5.675 0 0 1-2.142 2.117c-.813.4-1.694.642-2.597.714-.99.147-1.987.242-2.987.285h-11.517l.065-21.554Zm6.726 8.453h2.895a3.378 3.378 0 0 0 2.195-.532 2.015 2.015 0 0 0 .597-1.559 1.926 1.926 0 0 0-.597-1.48 3.43 3.43 0 0 0-2.143-.506h-2.947v4.077Zm0 8.479h3.428a3.896 3.896 0 0 0 2.428-.597 2.174 2.174 0 0 0 .701-1.663 1.956 1.956 0 0 0-.701-1.532 3.896 3.896 0 0 0-2.454-.584h-3.389l-.013 4.376Zm16.698-16.88h17.893v4.596h-11.167v3.415h10.388v4.402h-10.388v4.259H188.6v4.882h-18.178l-.039-21.554Zm20.256 0h20.269v5.323h-6.817v16.231h-6.648V29.58h-6.804V24.41Zm23.281 0h17.841v4.596h-11.18v3.415h10.388v4.402h-10.388v4.259h11.518v4.882H213.92V24.411Zm21.723 0h11.063a7.492 7.492 0 0 1 5.48 1.558 6.398 6.398 0 0 1 1.792 4.882 6.7 6.7 0 0 1-1.935 5.103 8.545 8.545 0 0 1-6.012 1.844h-3.636v7.998h-6.713l-.039-21.385Zm6.713 9.18h1.623a4.31 4.31 0 0 0 2.701-.65 2.169 2.169 0 0 0 .779-1.726 2.347 2.347 0 0 0-.688-1.727 3.442 3.442 0 0 0-2.519-.701h-1.896v4.804Z" fill="#055FAA"/></svg>
